!!!OTL: ICH HOERT EIN SICHLEIN RAUSCHEN
!!!ARE: Europa, Mitteleuropa, Deutschland, Heidelberg
!!!SCT: E0679D
!!!YEM: Copyright 1995, estate of Helmut Schaffrath.
**kern
*ICvox
*Ivox
*M6/8
*k[b-]
*F:
{8c
=1
8a
8g
8a
8cc
8b-
8a
=2
4.g
4d}
{16g
16a
=3
8b-
8a
8b-
8dd
8cc
8b-
=4
2a
8r}
{16a
16b-
=5
8cc
8dd
8cc
8cc
8ff
8dd
=6
4.cc}
{4a
16f
16g
=7
8a
8b-
8a
8g
8a
8g
=8
2f
8r}
==
!!!AGN: Liebes - Lied, Leid, Klage
!!!ONB: ESAC (Essen Associative Code) Database: ERK2
!!!AMT: compound duple
!!!AIN: vox
!!!EED: Helmut Schaffrath
!!!EEV: 1.0
*-
